status/22/fcitx-pinyin-libpinyin.svg

<svg xmlns="http://www.w3.org/2000/svg" viewBox="0 0 22 22">
  <defs id="defs3051">
    <style type="text/css" id="current-color-scheme">
      .ColorScheme-Text {
        color:#eff0f1;
      }
      </style>
  </defs>
    <path
       style="fill:currentColor;fill-opacity:1;stroke:none" 
       d="M 3 3 L 3 19 L 19 19 L 19 3 L 3 3 z M 10.900391 4.7011719 L 12.400391 6.7011719 L 12.001953 7 L 13.998047 7 L 13.599609 6.7011719 L 15.099609 4.7011719 L 15.900391 5.3007812 L 14.625 7 L 17 7 L 17 8 L 15 8 L 15 11 L 17 11 L 17 12 L 15 12 L 15 17 L 14 17 L 14 12 L 11.958984 12 C 11.862844 13.118701 11.481893 14.02943 11.033203 14.806641 C 10.412486 15.881641 9.3417969 16.865234 9.3417969 16.865234 L 8.6582031 16.136719 C 8.6582031 16.136719 9.6706537 15.167941 10.167969 14.306641 C 10.569285 13.61152 10.872261 12.895032 10.960938 12 L 9 12 L 9 11.058594 L 8 11.558594 L 8 17 L 5 17 L 5 16 L 7 16 L 7 12.058594 L 5.2226562 12.947266 L 4.7773438 12.052734 L 7 10.941406 L 7 8 L 5 8 L 5 7 L 7 7 L 7 5 L 8 5 L 8 7 L 9 7 L 9 8 L 8 8 L 8 10.441406 L 8.7773438 10.052734 L 9.2226562 10.947266 L 9.1171875 11 L 11 11 L 11 8 L 10 8 L 10 7 L 11.375 7 L 10.099609 5.3007812 L 10.900391 4.7011719 z M 12 8 L 12 11 L 14 11 L 14 8 L 12 8 z "
       class="ColorScheme-Text"
        />
</svg>

<svg xmlns="http://www.w3.org/2000/svg" viewBox="0 0 22 22">
  <defs id="defs3051">
    <style type="text/css" id="current-color-scheme">.ColorScheme-Text {color:#fcfcfc;}</style>
  </defs>
    <path
       style="fill:currentColor;fill-opacity:1;stroke:none" 
       d="m 3,6 c 0,3 0,7 0,10 0,3 3,3 3,3 h 10 c 0,0 3,0 3,-3 C 19,13 19,9 19,6 19,3 16,3 16,3 H 6 C 6,3 3,3 3,6 Z m 7.900391,-1.2988281 1.5,2 L 12.001953,7 h 1.996094 l -0.398438,-0.2988281 1.5,-2 0.800782,0.5996093 L 14.625,7 H 17 v 1 h -2 v 3 h 2 v 1 h -2 v 5 h -1 v -5 h -2.041016 c -0.09614,1.118701 -0.477091,2.02943 -0.925781,2.806641 -0.620717,1.075 -1.6914061,2.058593 -1.6914061,2.058593 L 8.6582031,16.136719 c 0,0 1.0124506,-0.968778 1.5097659,-1.830078 C 10.569285,13.61152 10.872261,12.895032 10.960938,12 H 9 v -0.941406 l -1,0.5 V 17 H 5 V 16 H 7 V 12.058594 L 5.2226562,12.947266 4.7773438,12.052734 7,10.941406 V 8 H 5 V 7 H 7 V 5 H 8 V 7 H 9 V 8 H 8 v 2.441406 L 8.7773438,10.052734 9.2226562,10.947266 9.1171875,11 H 11 V 8 H 10 V 7 h 1.375 L 10.099609,5.3007812 Z M 12,8 v 3 h 2 V 8 Z"
       class="ColorScheme-Text"
        />
</svg>
